icon-svg/twinkly.svg

<?xml version="1.0" encoding="UTF-8"?>
<svg width="24px" fill="#44739e" height="24px" viewBox="0 0 24 24" version="1.1" xmlns="http://www.w3.org/2000/svg" xmlns:xlink="http://www.w3.org/1999/xlink">
            <path d="m 21.471172,10.065454 c -0.0809,0.342636 -0.211131,0.671684 -0.386665,0.97686 -0.291588,0.498792 -0.640377,0.961854 -1.039274,1.379816 -0.472149,0.497471 -0.952893,0.987712 -1.44224,1.470715 -0.03878,0.03812 -0.05121,0.09578 -0.03112,0.146543 0.442541,0.998056 0.68324,2.073811 0.708228,3.165299 0.01788,0.884353 -0.05521,1.768195 -0.21844,2.637536 -0.201416,0.756089 -0.946602,1.233464 -1.717651,1.100329 -1.249532,-0.252285 -2.437713,-0.746355 -3.497709,-1.454448 -0.573523,-0.356679 -1.105098,-0.776748 -1.584694,-1.252278 l -0.02041,0.015 C 10.968916,19.49423 9.5144868,20.536442 7.9280649,21.341473 6.962613,21.822132 5.790323,21.428333 5.3108741,20.462283 4.9050165,19.051742 4.8201779,17.568239 5.0625942,16.120655 5.1925225,15.391005 5.3623716,14.669035 5.5713776,13.957985 5.4356992,13.837229 4.1969815,12.551029 3.7696046,12.000175 2.243256,10.036955 2.3043104,9.206627 2.3043104,9.206627 2.4002363,8.4773174 2.8690976,7.8506266 3.5416696,7.5527391 4.5906937,7.0264844 5.7634887,6.7966169 6.9335552,6.8879292 7.6671779,6.9327425 8.3883221,7.0987 9.067733,7.3790748 c 0.6474601,0.2629756 1.253067,0.6190316 1.797693,1.0569125 0.519633,0.4152877 0.989075,0.8897377 1.398815,1.4137307 0.05983,0.07439 0.05983,0.180595 0,0.25508 -0.06145,0.07321 -0.166523,0.09198 -0.249634,0.04482 v 0 C 10.978624,9.531376 9.8287591,9.1280825 8.6335688,8.9637964 8.0912471,8.9040381 7.5432257,8.9204237 7.005464,9.0126274 6.6121253,9.0882251 6.2288025,9.2088544 5.8630766,9.372166 c -0.032483,0.0148 -0.046547,0.05326 -0.0312,0.0855 l 0.010856,0.01632 c 0.8238346,0.868655 1.7705019,1.611911 2.8098417,2.206083 0.9008818,0.549481 1.4028827,1.139676 1.1084728,2.035134 -0.3056217,0.77312 -0.5209688,1.578942 -0.6417488,2.401453 0.8291028,-0.506021 1.6179077,-1.075284 2.3593927,-1.702728 0.751682,-0.529834 1.79194,-0.338916 2.306489,0.423307 0.730872,0.992357 1.637187,1.842571 2.674159,2.508641 -0.03524,-1.200301 -0.246857,-2.388893 -0.628178,-3.52756 -0.153825,-0.472029 0.03224,-0.988264 0.451804,-1.253641 1.067575,-0.783523 2.0539,-1.672119 2.944152,-2.652452 C 19.498464,9.53368 19.46048,9.387153 19.014104,9.2338375 17.764767,8.8681332 16.435328,8.8789868 15.19213,9.2649875 14.823856,9.4080715 14.409261,9.2259315 14.265466,8.8579659 v 0 C 14.237207,8.7865855 14.222027,8.7107745 14.22066,8.6340672 14.177292,7.645485 13.97243,6.6706646 13.61421,5.7482503 13.323803,4.9892869 12.895557,4.2905693 12.351068,3.6873397 c -0.02707,-0.02782 -0.07197,-0.02782 -0.099,0 v 0 c -0.37285,0.4199184 -0.699867,0.8783785 -0.975516,1.3676214 -0.348171,0.662456 -0.608164,1.3676231 -0.773341,2.0975432 -0.02183,0.048884 -0.06769,0.082842 -0.12076,0.089551 -0.104707,0.024928 -0.202662,-0.061188 -0.19131,-0.1682447 0.22593,-1.6110834 0.897429,-3.1270179 1.938795,-4.3768897 0.142465,-0.1750218 0.162815,-0.2225076 0.343264,-0.092252 l 0.042,0.024413 c 0.915711,0.6932614 1.655597,1.592097 2.159958,2.6239625 0.354607,0.7000121 0.627741,1.4383901 0.814058,2.2006562 0.01164,0.041957 0.05445,0.066844 0.09638,0.055627 v 0 c 0.735972,-0.217814 1.50113,-0.3207823 2.268492,-0.3052695 0.546626,0.00637 1.091542,0.062309 1.628109,0.166881 0.332298,0.068518 0.652444,0.1865168 0.949722,0.3500422 0.845911,0.4486893 1.274806,1.41805 1.037918,2.3458247"/>

</svg>

<svg xmlns="http://www.w3.org/2000/svg" fill="#44739e" viewBox="0 0 24 24"><path d="M21.4712 10.0655a3.63 3.63 0 0 1-.3867.9768 7.43 7.43 0 0 1-1.0393 1.3798 63 63 0 0 1-1.4422 1.4707.136.136 0 0 0-.0311.1466 8.28 8.28 0 0 1 .7082 3.1653 12.9 12.9 0 0 1-.2184 2.6375c-.2015.7561-.9466 1.2335-1.7177 1.1004a9.78 9.78 0 0 1-3.4977-1.4545 9 9 0 0 1-1.5847-1.2523l-.0204.015a17.5 17.5 0 0 1-4.3131 3.0907c-.9655.4806-2.1378.0868-2.6172-.8792a9.83 9.83 0 0 1-.2483-4.3416 20.3 20.3 0 0 1 .5088-2.1627c-.1357-.1208-1.3744-1.407-1.8018-1.9578-1.5263-1.9632-1.4653-2.7936-1.4653-2.7936a2.11 2.11 0 0 1 1.2374-1.6539 6.446 6.446 0 0 1 3.3919-.6648 6.66 6.66 0 0 1 2.1341.4912 7.18 7.18 0 0 1 1.7977 1.0569 8.55 8.55 0 0 1 1.3988 1.4137.204.204 0 0 1 0 .2551.198.198 0 0 1-.2496.0448 8.99 8.99 0 0 0-3.381-1.1858 5.85 5.85 0 0 0-1.6281.0488 5.22 5.22 0 0 0-1.1424.3596.064.064 0 0 0-.0312.0855l.0108.0163a12.26 12.26 0 0 0 2.8099 2.206c.9009.5495 1.4029 1.1397 1.1084 2.0352a10.8 10.8 0 0 0-.6417 2.4015 18.9 18.9 0 0 0 2.3594-1.7028c.7517-.5298 1.792-.3389 2.3065.4233a10.1 10.1 0 0 0 2.6741 2.5087 12.24 12.24 0 0 0-.6281-3.5276 1.0854 1.0854 0 0 1 .4518-1.2536 19.8 19.8 0 0 0 2.9441-2.6525c.2714-.3785.2334-.525-.213-.6784a6.62 6.62 0 0 0-3.822.0312.7164.7164 0 0 1-.9266-.407.64.64 0 0 1-.0448-.224 9.07 9.07 0 0 0-.6065-2.8857 6.59 6.59 0 0 0-1.2631-2.061.069.069 0 0 0-.099 0 7.9 7.9 0 0 0-.9755 1.3677 8.58 8.58 0 0 0-.7734 2.0975.153.153 0 0 1-.1207.0896.156.156 0 0 1-.1914-.1683A8.73 8.73 0 0 1 12.13 2.697c.1425-.175.1629-.2225.3433-.0922l.042.0244a7.326 7.326 0 0 1 2.16 2.624c.3546.7.6277 1.4383.814 2.2006a.079.079 0 0 0 .0964.0556 7.46 7.46 0 0 1 2.2685-.3052 9.06 9.06 0 0 1 1.6281.1668 3.4 3.4 0 0 1 .9497.35 2.0745 2.0745 0 0 1 1.038 2.346"/></svg>
